public/assets/img/app_store-dark.svg

<svg width="120" height="40" viewBox="0 0 120 40" fill="none" xmlns="http://www.w3.org/2000/svg">
<g id="app_store">
<g id="surface">
<rect width="120" height="40" rx="12" fill="white"/>
<rect x="0.5" y="0.5" width="119" height="39" rx="11.5" stroke="#141029" stroke-opacity="0.24"/>
</g>
<path id="shape" fill-rule="evenodd" clip-rule="evenodd" d="M74.6792 29.0762C73.0444 29.0762 71.8481 28.2676 71.7104 27.0362L69.8081 27.0361C69.9282 29.2822 71.7876 30.7031 74.5415 30.7031C77.4848 30.7031 79.3354 29.248 79.3354 26.9248C79.3354 25.1084 78.2768 24.0849 75.729 23.4824L74.3608 23.1465C72.7602 22.751 72.1059 22.2344 72.1059 21.3565C72.1059 20.2549 73.1303 19.4981 74.6274 19.4981C76.1245 19.4981 77.1489 20.2461 77.2612 21.4854H79.1372C79.0767 19.3428 77.2778 17.8711 74.6538 17.8711C72.0024 17.8711 70.1353 19.3428 70.1353 21.4854C70.1353 23.2158 71.1939 24.2822 73.4741 24.833L75.0835 25.2207C76.6929 25.6162 77.3726 26.1934 77.3726 27.1572C77.3726 28.2676 76.2456 29.0762 74.6792 29.0762ZM42.3022 27.1397H37.5688L36.4321 30.4962H34.4272L38.9106 18.0782H40.9936L45.477 30.4962H43.438L42.3022 27.1397ZM38.0591 25.5909H41.8111L39.9615 20.1436H39.9097L38.0591 25.5909ZM55.1597 25.9698C55.1597 28.7833 53.6538 30.5909 51.3813 30.5909C50.2067 30.6523 49.1003 30.0371 48.5327 29.0069H48.4897V33.4913H46.6313V21.4424H48.4302V22.9483H48.4644C49.0572 21.9245 50.1648 21.3096 51.3472 21.3477C53.645 21.3477 55.1597 23.1641 55.1597 25.9698ZM53.2495 25.9698C53.2495 24.1368 52.3022 22.9317 50.8569 22.9317C49.437 22.9317 48.4819 24.1622 48.4819 25.9698C48.4819 27.794 49.437 29.0157 50.8569 29.0157C52.3022 29.0157 53.2495 27.8194 53.2495 25.9698ZM61.3462 30.5909C63.6186 30.5909 65.1245 28.7833 65.1245 25.9698C65.1245 23.1641 63.6099 21.3477 61.312 21.3477C60.1296 21.3096 59.022 21.9245 58.4292 22.9483H58.395V21.4424H56.5962V33.4913H58.4546V29.0069H58.4976C59.0651 30.0371 60.1716 30.6523 61.3462 30.5909ZM60.8218 22.9317C62.2671 22.9317 63.2143 24.1368 63.2144 25.9698C63.2144 27.8194 62.2671 29.0157 60.8218 29.0157C59.4018 29.0157 58.4468 27.794 58.4468 25.9698C58.4468 24.1622 59.4018 22.9317 60.8218 22.9317ZM83.3462 19.2999V21.4424H85.0679V22.9141H83.3462V27.9053C83.3462 28.6807 83.6909 29.042 84.4477 29.042C84.6521 29.0385 84.8562 29.0241 85.0591 28.999V30.4619C84.7188 30.5255 84.3729 30.5543 84.0268 30.5479C82.1938 30.5479 81.479 29.8594 81.479 28.1035V22.9141H80.1626V21.4424H81.479V19.2999H83.3462ZM86.065 25.9698C86.065 23.1212 87.7427 21.3311 90.3589 21.3311C92.9839 21.3311 94.6538 23.1211 94.6538 25.9698C94.6538 28.8262 92.9927 30.6085 90.3589 30.6085C87.7261 30.6085 86.065 28.8262 86.065 25.9698ZM92.7603 25.9698C92.7603 24.0157 91.8648 22.8624 90.3589 22.8624C88.8531 22.8624 87.9585 24.0245 87.9585 25.9698C87.9585 27.9317 88.8531 29.0762 90.3589 29.0762C91.8648 29.0762 92.7602 27.9317 92.7602 25.9698H92.7603ZM96.186 21.4424H97.9585V22.9834H98.0015C98.2487 21.9914 99.1576 21.3087 100.179 21.3477C100.393 21.3469 100.607 21.3702 100.816 21.417V23.1553C100.546 23.0727 100.264 23.0348 99.9809 23.043C99.4346 23.0208 98.9058 23.2386 98.5335 23.6391C98.1612 24.0395 97.9826 24.5827 98.0444 25.126V30.4961H96.186L96.186 21.4424ZM109.384 27.837C109.134 29.4805 107.534 30.6084 105.486 30.6084C102.852 30.6084 101.217 28.8438 101.217 26.0127C101.217 23.1729 102.861 21.3311 105.408 21.3311C107.913 21.3311 109.488 23.0518 109.488 25.7969V26.4336H103.093V26.5459C103.034 27.22 103.266 27.8872 103.732 28.3778C104.198 28.8685 104.853 29.1353 105.529 29.1104C106.431 29.1949 107.281 28.677 107.62 27.837L109.384 27.837ZM103.102 25.1348L107.628 25.1348C107.662 24.5292 107.442 23.9369 107.02 23.5007C106.599 23.0645 106.014 22.8239 105.408 22.837C104.796 22.8333 104.209 23.074 103.776 23.5055C103.343 23.937 103.1 24.5236 103.102 25.1348Z" fill="#141029"/>
<path id="shape_2" fill-rule="evenodd" clip-rule="evenodd" d="M95.7046 8.43701H96.5854V10.9185H96.6558C96.8978 10.3872 97.4469 10.0646 98.0288 10.1118C98.4701 10.0878 98.8991 10.2618 99.199 10.5864C99.4989 10.9111 99.6384 11.3525 99.5795 11.7905V14.6978H98.69V12.0098C98.69 11.2905 98.355 10.9263 97.7271 10.9263C97.4179 10.9009 97.1133 11.0133 96.8947 11.2334C96.6761 11.4535 96.5658 11.7589 96.5933 12.0679V14.6977H95.7046L95.7046 8.43701ZM93.5151 9.07374V10.2153H94.4907V10.9639H93.5151V13.2793C93.5151 13.751 93.7095 13.9575 94.1519 13.9575C94.2651 13.9572 94.3783 13.9503 94.4907 13.937V14.6773C94.3311 14.7058 94.1694 14.721 94.0073 14.7227C93.019 14.7227 92.6255 14.375 92.6255 13.5068V10.9638H91.9106V10.2153H92.6255V9.07374H93.5151ZM104.761 13.4819C104.512 14.3313 103.69 14.8801 102.81 14.7847C102.21 14.8005 101.633 14.5516 101.232 14.1041C100.831 13.6565 100.648 13.0555 100.73 12.4605C100.65 11.8638 100.833 11.2618 101.231 10.8105C101.63 10.3591 102.204 10.1028 102.806 10.1079C104.059 10.1079 104.815 10.9639 104.815 12.3779V12.688H101.635V12.7378C101.607 13.072 101.721 13.4025 101.95 13.6481C102.178 13.8936 102.499 14.0315 102.834 14.0278C103.269 14.08 103.692 13.8643 103.906 13.4819L104.761 13.4819ZM101.635 12.0308H103.91C103.932 11.7252 103.825 11.4242 103.614 11.2021C103.403 10.9799 103.108 10.8572 102.801 10.8643C102.491 10.8604 102.192 10.982 101.972 11.2017C101.753 11.4213 101.631 11.7203 101.635 12.0308ZM37.8262 8.73101C38.6151 8.6744 39.3879 8.97456 39.9317 9.54888C40.4756 10.1232 40.7333 10.9112 40.6338 11.6959C40.6338 13.6021 39.6035 14.6979 37.8262 14.6979H35.6709V8.73101H37.8262ZM36.5976 13.854H37.7226C38.2865 13.8877 38.8355 13.6656 39.2172 13.2493C39.5989 12.833 39.7728 12.2668 39.6904 11.708C39.7668 11.1515 39.5904 10.5901 39.2096 10.1771C38.8289 9.76423 38.2835 9.5431 37.7226 9.57422H36.5976V13.854ZM84.6694 10.1948H85.5249V10.9102H85.5913C85.8222 10.3835 86.3619 10.0613 86.9351 10.1079C87.3789 10.0745 87.8138 10.2448 88.117 10.5706C88.4202 10.8964 88.5588 11.3424 88.4937 11.7827V14.6977H87.605V12.0059C87.605 11.2822 87.2905 10.9224 86.6333 10.9224C86.3323 10.9084 86.0401 11.0265 85.8335 11.2458C85.6268 11.4652 85.5262 11.7638 85.5581 12.0635V14.6978H84.6694V10.1948ZM80.2287 10.4286C79.5398 10.8561 79.1528 11.6372 79.23 12.4444C79.1513 13.2523 79.538 14.035 80.2275 14.4634C80.917 14.8918 81.79 14.8918 82.4795 14.4634C83.1691 14.035 83.5557 13.2523 83.4771 12.4444C83.5543 11.6372 83.1672 10.8561 82.4783 10.4286C81.7894 10.0011 80.9176 10.0011 80.2287 10.4286ZM81.355 10.8975C82.1245 10.8975 82.563 11.4683 82.563 12.4444C82.563 13.4243 82.1245 13.9946 81.355 13.9947C80.5826 13.9947 80.148 13.4283 80.148 12.4444C80.148 11.4683 80.5825 10.8975 81.355 10.8975ZM41.6807 12.4444C41.6034 11.6372 41.9905 10.8561 42.6794 10.4286C43.3683 10.0011 44.2401 10.0011 44.929 10.4286C45.6179 10.8561 46.0049 11.6372 45.9277 12.4444C46.0064 13.2523 45.6197 14.035 44.9302 14.4634C44.2407 14.8918 43.3677 14.8918 42.6782 14.4634C41.9886 14.035 41.602 13.2523 41.6807 12.4444ZM45.0137 12.4444C45.0137 11.4683 44.5752 10.8975 43.8057 10.8975C43.0332 10.8975 42.5987 11.4683 42.5987 12.4444C42.5987 13.4283 43.0332 13.9947 43.8057 13.9947C44.5752 13.9946 45.0137 13.4243 45.0137 12.4444H45.0137ZM51.5732 14.6978H50.6514L49.7207 11.3814H49.6504L48.7236 14.6978H47.8105L46.5693 10.1948H47.4707L48.2773 13.6308H48.3438L49.2695 10.1948H50.1221L51.0479 13.6308H51.1182L51.9209 10.1948H52.8096L51.5732 14.6978ZM54.709 10.1948H53.8535L53.8535 14.6978H54.7422V12.0635C54.7103 11.7638 54.8109 11.4652 55.0175 11.2458C55.2242 11.0265 55.5163 10.9084 55.8174 10.9224C56.4746 10.9224 56.7891 11.2822 56.7891 12.0059V14.6977H57.6777V11.7827C57.7429 11.3424 57.6043 10.8964 57.3011 10.5706C56.9979 10.2448 56.563 10.0745 56.1191 10.1079C55.5459 10.0613 55.0063 10.3835 54.7754 10.9102H54.709V10.1948ZM59.0937 8.43701H59.9824V14.6978H59.0937V8.43701ZM61.2178 12.4444C61.1406 11.6372 61.5277 10.8561 62.2167 10.4285C62.9057 10.001 63.7774 10.001 64.4664 10.4285C65.1554 10.8561 65.5425 11.6372 65.4653 12.4444C65.5439 13.2524 65.1572 14.035 64.4676 14.4634C63.778 14.8918 62.9051 14.8918 62.2155 14.4634C61.5259 14.035 61.1392 13.2524 61.2178 12.4444ZM64.5508 12.4444C64.5508 11.4683 64.1123 10.8975 63.3428 10.8975C62.5703 10.8975 62.1358 11.4683 62.1358 12.4444C62.1358 13.4283 62.5703 13.9947 63.3428 13.9947C64.1123 13.9946 64.5508 13.4243 64.5508 12.4444ZM68.0757 12.0801C67.0044 12.1465 66.4009 12.6138 66.4009 13.4243C66.4024 13.8087 66.5664 14.1744 66.8524 14.4312C67.1383 14.6879 67.5196 14.8117 67.9019 14.772C68.4472 14.7972 68.9638 14.5271 69.2544 14.065H69.3247V14.6978H70.1802V11.6211C70.1802 10.6699 69.5435 10.1079 68.4146 10.1079C67.3931 10.1079 66.6655 10.604 66.5747 11.3775H67.4351C67.5337 11.0591 67.8774 10.877 68.3735 10.877C68.981 10.877 69.2954 11.1455 69.2954 11.6211V12.0098L68.0757 12.0801ZM69.2954 12.6631V13.0396C69.276 13.3266 69.1409 13.5934 68.9211 13.7789C68.7013 13.9645 68.4156 14.0529 68.1294 14.0239C67.646 14.0239 67.2944 13.7881 67.2944 13.3828C67.2944 12.9859 67.5757 12.7749 68.1958 12.7334L69.2954 12.6631ZM71.3481 12.4444C71.3481 11.0215 72.0796 10.1201 73.2173 10.1201C73.7918 10.0937 74.3298 10.4015 74.5981 10.9101H74.6645V8.43701H75.5532V14.6978H74.7017V13.9863H74.6313C74.3427 14.4907 73.798 14.7934 73.2173 14.772C72.0718 14.772 71.3481 13.8706 71.3481 12.4444ZM72.2661 12.4444C72.2661 13.3994 72.7163 13.9741 73.4693 13.9741C74.2183 13.9741 74.6812 13.3911 74.6812 12.4483C74.6812 11.5098 74.2134 10.9185 73.4693 10.9185C72.7212 10.9185 72.2661 11.4971 72.2661 12.4444H72.2661Z" fill="#141029"/>
<path id="shape_3" fill-rule="evenodd" clip-rule="evenodd" d="M23.1518 8.72021C23.2486 9.98445 22.8488 11.2366 22.0372 12.2108C21.2499 13.1901 20.0569 13.7542 18.8005 13.7412C18.7206 12.5134 19.132 11.3041 19.9442 10.3798C20.7667 9.44299 21.9119 8.85044 23.1518 8.72021ZM27.1254 16.1486C25.6801 17.0371 24.7907 18.6042 24.7689 20.3006C24.7709 22.22 25.9204 23.9521 27.6881 24.6998C27.3481 25.8042 26.8357 26.8479 26.1697 27.7923C25.2753 29.1302 24.3376 30.4373 22.8492 30.4614C22.1413 30.4778 21.6635 30.2742 21.1656 30.0621C20.6462 29.8409 20.1051 29.6103 19.2582 29.6103C18.36 29.6103 17.7946 29.8483 17.2493 30.0778C16.778 30.2761 16.3218 30.4682 15.6788 30.4948C14.2613 30.5473 13.1781 29.0669 12.2512 27.7415C10.3985 25.0349 8.95595 20.1139 10.89 16.7654C11.7981 15.1335 13.4962 14.0979 15.3629 14.0376C16.1668 14.021 16.9382 14.3309 17.6145 14.6025C18.1318 14.8103 18.5934 14.9957 18.9714 14.9957C19.3037 14.9957 19.7524 14.8176 20.2753 14.6101C21.0991 14.2831 22.1071 13.8831 23.1343 13.9909C24.7304 14.0408 26.2095 14.8405 27.1254 16.1486Z" fill="#141029"/>
</g>
</svg>

<svg width="120" height="40" fill="none" xmlns="http://www.w3.org/2000/svg"><rect width="120" height="40" rx="12" fill="#fff"/><rect x=".5" y=".5" width="119" height="39" rx="11.5" stroke="#141029" stroke-opacity=".24"/><path fill-rule="evenodd" clip-rule="evenodd" d="M74.68 29.076c-1.636 0-2.832-.808-2.97-2.04h-1.902c.12 2.246 1.98 3.667 4.733 3.667 2.944 0 4.794-1.455 4.794-3.778 0-1.817-1.058-2.84-3.606-3.443l-1.368-.335c-1.6-.396-2.255-.913-2.255-1.79 0-1.102 1.024-1.859 2.521-1.859 1.498 0 2.522.748 2.634 1.987h1.876c-.06-2.142-1.86-3.614-4.483-3.614-2.652 0-4.519 1.472-4.519 3.614 0 1.73 1.059 2.797 3.34 3.348l1.609.388c1.609.395 2.289.972 2.289 1.936 0 1.11-1.127 1.92-2.694 1.92ZM42.301 27.14H37.57l-1.137 3.356h-2.005l4.484-12.418h2.083l4.483 12.418h-2.039l-1.136-3.356Zm-4.243-1.55h3.752l-1.85-5.446h-.051l-1.85 5.447Zm17.1.38c0 2.813-1.505 4.62-3.778 4.62a3.07 3.07 0 0 1-2.848-1.583h-.043v4.484H46.63V21.442h1.8v1.506h.033a3.212 3.212 0 0 1 2.883-1.6c2.298 0 3.813 1.816 3.813 4.622Zm-1.91 0c0-1.833-.947-3.038-2.392-3.038-1.42 0-2.375 1.23-2.375 3.038 0 1.824.955 3.046 2.375 3.046 1.445 0 2.392-1.197 2.392-3.046Zm8.097 4.62c2.273 0 3.779-1.807 3.779-4.62 0-2.806-1.515-4.622-3.813-4.622a3.212 3.212 0 0 0-2.883 1.6h-.034v-1.506h-1.799v12.05h1.859v-4.485h.043a3.07 3.07 0 0 0 2.848 1.584Zm-.524-7.658c1.445 0 2.392 1.205 2.392 3.038 0 1.85-.947 3.046-2.392 3.046-1.42 0-2.375-1.222-2.375-3.046 0-1.808.955-3.038 2.375-3.038ZM83.346 19.3v2.142h1.722v1.472h-1.722v4.991c0 .776.345 1.137 1.102 1.137.204-.004.408-.018.611-.043v1.463c-.34.064-.686.092-1.032.086-1.833 0-2.548-.689-2.548-2.444v-5.19h-1.316v-1.472h1.316V19.3h1.867Zm2.719 6.67c0-2.849 1.678-4.639 4.294-4.639 2.625 0 4.295 1.79 4.295 4.639 0 2.856-1.661 4.639-4.295 4.639-2.633 0-4.294-1.783-4.294-4.64Zm6.695 0c0-1.954-.895-3.108-2.401-3.108-1.506 0-2.4 1.163-2.4 3.108 0 1.962.894 3.106 2.4 3.106 1.506 0 2.401-1.144 2.401-3.106Zm3.426-4.528h1.772v1.541h.043a2.16 2.16 0 0 1 2.178-1.635c.214-.001.428.022.637.069v1.738a2.597 2.597 0 0 0-.835-.112 1.873 1.873 0 0 0-1.937 2.083v5.37h-1.858v-9.054Zm13.198 6.395c-.25 1.643-1.85 2.771-3.898 2.771-2.634 0-4.269-1.764-4.269-4.595 0-2.84 1.644-4.682 4.191-4.682 2.505 0 4.08 1.72 4.08 4.466v.637h-6.395v.112a2.36 2.36 0 0 0 2.436 2.564 2.049 2.049 0 0 0 2.091-1.273h1.764Zm-6.282-2.702h4.526a2.174 2.174 0 0 0-2.22-2.298 2.291 2.291 0 0 0-2.306 2.298ZM95.705 8.437h.88v2.482h.07a1.386 1.386 0 0 1 1.374-.807 1.484 1.484 0 0 1 1.55 1.678v2.908h-.889V12.01c0-.72-.335-1.084-.963-1.084a1.052 1.052 0 0 0-1.134 1.142v2.63h-.888V8.437Zm-2.19.637v1.141h.976v.749h-.976v2.315c0 .472.195.678.637.678.113 0 .226-.007.339-.02v.74c-.16.029-.322.044-.484.046-.988 0-1.382-.348-1.382-1.216v-2.543h-.714v-.749h.715V9.074h.89Zm11.246 4.408a1.828 1.828 0 0 1-1.951 1.303 2.047 2.047 0 0 1-2.08-2.325 2.078 2.078 0 0 1 2.076-2.352c1.253 0 2.009.856 2.009 2.27v.31h-3.18v.05a1.189 1.189 0 0 0 1.199 1.29 1.08 1.08 0 0 0 1.072-.546h.855Zm-3.126-1.451h2.275a1.09 1.09 0 0 0-1.109-1.167 1.153 1.153 0 0 0-1.166 1.167Zm-63.809-3.3a2.64 2.64 0 0 1 2.808 2.965c0 1.906-1.03 3.002-2.808 3.002h-2.155V8.73h2.155Zm-1.228 5.123h1.125a1.876 1.876 0 0 0 1.967-2.146 1.88 1.88 0 0 0-1.967-2.134h-1.125v4.28Zm48.071-3.66h.856v.716h.066c.231-.527.77-.849 1.344-.802a1.464 1.464 0 0 1 1.559 1.675v2.915h-.889v-2.692c0-.724-.315-1.084-.972-1.084a1.033 1.033 0 0 0-1.075 1.141v2.635h-.889v-4.503Zm-4.44.235a2.133 2.133 0 0 0-.999 2.015 2.134 2.134 0 1 0 4.247 0 2.133 2.133 0 0 0-3.248-2.015Zm1.126.469c.77 0 1.208.57 1.208 1.546 0 .98-.439 1.55-1.208 1.55-.772 0-1.207-.566-1.207-1.55 0-.976.434-1.546 1.207-1.546Zm-39.674 1.546a2.133 2.133 0 1 1 4.247 0 2.134 2.134 0 1 1-4.247 0Zm3.333 0c0-.976-.439-1.546-1.208-1.546-.773 0-1.207.57-1.207 1.546 0 .984.434 1.55 1.207 1.55.77 0 1.208-.57 1.208-1.55Zm6.56 2.254h-.923l-.93-3.317h-.07l-.927 3.317h-.913l-1.242-4.503h.902l.806 3.436h.067l.925-3.436h.853l.926 3.436h.07l.803-3.436h.889l-1.237 4.503Zm3.135-4.503h-.856v4.503h.89v-2.635a1.033 1.033 0 0 1 1.074-1.14c.658 0 .972.36.972 1.083v2.692h.889v-2.915a1.464 1.464 0 0 0-1.559-1.675 1.348 1.348 0 0 0-1.344.802h-.066v-.715Zm4.385-1.758h.888v6.26h-.888v-6.26Zm2.124 4.007a2.134 2.134 0 1 1 4.247 0 2.134 2.134 0 1 1-4.247 0Zm3.333 0c0-.976-.439-1.546-1.208-1.546-.773 0-1.207.57-1.207 1.546 0 .984.434 1.55 1.207 1.55.77 0 1.208-.57 1.208-1.55Zm3.525-.364c-1.072.066-1.675.534-1.675 1.344a1.36 1.36 0 0 0 1.5 1.348 1.515 1.515 0 0 0 1.353-.707h.07v.633h.856V11.62c0-.951-.637-1.513-1.765-1.513-1.022 0-1.75.496-1.84 1.27h.86c.099-.319.442-.501.939-.501.607 0 .921.268.921.744v.389l-1.22.07Zm1.22.583v.377a1.061 1.061 0 0 1-1.167.984c-.483 0-.835-.236-.835-.641 0-.397.282-.608.902-.65l1.1-.07Zm2.052-.219c0-1.423.732-2.324 1.87-2.324a1.484 1.484 0 0 1 1.38.79h.067V8.437h.888v6.26h-.851v-.71h-.07a1.563 1.563 0 0 1-1.415.785c-1.145 0-1.869-.901-1.869-2.328Zm.918 0c0 .955.45 1.53 1.203 1.53.75 0 1.212-.583 1.212-1.526 0-.938-.468-1.53-1.212-1.53-.748 0-1.203.58-1.203 1.526ZM23.152 8.72a4.872 4.872 0 0 1-1.115 3.49 4.099 4.099 0 0 1-3.236 1.531 4.636 4.636 0 0 1 1.143-3.361 4.957 4.957 0 0 1 3.208-1.66Zm3.973 7.429A4.949 4.949 0 0 0 24.77 20.3a4.782 4.782 0 0 0 2.92 4.399 10.963 10.963 0 0 1-1.52 3.092c-.894 1.338-1.831 2.645-3.32 2.67-.708.016-1.186-.188-1.683-.4-.52-.221-1.06-.452-1.908-.452-.898 0-1.463.238-2.009.468-.471.198-.927.39-1.57.417-1.418.052-2.5-1.428-3.428-2.754-1.852-2.706-3.295-7.627-1.361-10.976a5.315 5.315 0 0 1 4.473-2.727c.804-.017 1.575.293 2.252.564.517.208.978.394 1.356.394.333 0 .781-.178 1.304-.386.824-.327 1.832-.727 2.86-.62 1.595.05 3.074.85 3.99 2.159Z" fill="#141029"/></svg>
